tools/download-figma-icons/icons/solid/time.svg

<svg width="25" height="25" viewBox="0 0 25 25" fill="none" xmlns="http://www.w3.org/2000/svg">
<path fill-rule="evenodd" clip-rule="evenodd" d="M12.5111 11.3329C11.8633 11.3329 11.3404 11.8566 11.3404 12.5036C11.3404 13.1436 11.8633 13.6744 12.5111 13.6744C13.1511 13.6744 13.6819 13.1436 13.6819 12.5036C13.6819 12.2859 13.6194 12.0744 13.5102 11.9026C13.308 11.5592 12.9326 11.3329 12.5111 11.3329ZM21.5259 8.01577L15.1578 11.8254C15.2117 12.0431 15.2429 12.2695 15.2429 12.5036C15.2429 14.0108 14.0183 15.2354 12.5111 15.2354C11.3092 15.2354 10.2867 14.4549 9.92068 13.37H6.23596C5.80668 13.37 5.45546 13.0188 5.45546 12.5895C5.45546 12.161 5.80668 11.809 6.23596 11.809H9.87307C10.1782 10.6382 11.2467 9.77189 12.5111 9.77189C13.2292 9.77189 13.8692 10.0458 14.3531 10.4907L20.7227 6.67332C21.0966 6.45478 21.5727 6.57186 21.799 6.94728C22.0184 7.31411 21.8935 7.79802 21.5259 8.01577ZM4.41741 7.7356C4.20667 8.10946 3.73057 8.23434 3.35671 8.02438C2.98129 7.80507 2.85641 7.32896 3.06715 6.9551C3.28647 6.57969 3.76179 6.45481 4.13721 6.67335C4.51106 6.88486 4.63594 7.36018 4.41741 7.7356ZM2.34206 13.1991C1.91201 13.1991 1.56157 12.8471 1.56157 12.4186C1.56157 11.9807 1.91201 11.6381 2.34206 11.6381C2.77134 11.6381 3.12256 11.9807 3.12256 12.4186C3.12256 12.8471 2.77134 13.1991 2.34206 13.1991ZM7.10232 2.98237C7.47695 2.77086 7.95306 2.89573 8.17159 3.27115C8.38233 3.64501 8.25745 4.12189 7.88281 4.33185C7.50817 4.55117 7.03207 4.42551 6.82134 4.05165C6.60358 3.67623 6.72768 3.20013 7.10232 2.98237ZM12.5814 1.56109C13.0185 1.56109 13.3619 1.9131 13.3619 2.34159C13.3619 2.77086 13.0185 3.12208 12.5814 3.12208C12.1521 3.12208 11.8009 2.77086 11.8009 2.34159C11.8009 1.9131 12.1521 1.56109 12.5814 1.56109ZM16.9764 3.35622C17.1941 2.98236 17.6702 2.85748 18.0449 3.06744C18.4195 3.28598 18.5444 3.76286 18.3259 4.13672C18.1159 4.51213 17.639 4.63701 17.2644 4.41848C16.8897 4.20696 16.7649 3.73164 16.9764 3.35622ZM24.9766 11.7941C24.9766 11.7074 24.968 11.6138 24.9602 11.5279C24.9454 11.3102 24.9212 11.0908 24.89 10.8723C24.8666 10.6694 24.8354 10.4743 24.7963 10.2721C24.7815 10.1706 24.7651 10.077 24.7417 9.98332C24.7339 9.92791 24.7261 9.87405 24.7105 9.82644C24.6715 9.64771 24.6254 9.46039 24.5778 9.28009C24.5075 9.02253 24.4303 8.76497 24.3436 8.50818C24.2664 8.25842 24.1719 8.00789 24.0713 7.76671C23.9456 7.45373 23.7973 7.14232 23.642 6.83714C23.571 6.68963 23.4929 6.54055 23.4071 6.39304C23.3844 6.35323 23.3602 6.30719 23.3368 6.26816C22.3066 4.48083 20.8478 2.97369 19.0987 1.88178C18.9426 1.78031 18.7787 1.68665 18.6148 1.60002C16.8353 0.593177 14.7904 0.0156099 12.605 0H12.5816H12.566H12.4957C5.59692 0 0.00778666 5.58913 0.000762203 12.4957V12.5035C0.000762203 12.9336 0.0233966 13.3629 0.0624214 13.7843C0.148276 14.6187 0.319985 15.4304 0.561939 16.2109C0.741453 16.8049 0.967796 17.3738 1.23317 17.9202C1.41268 18.2792 1.6078 18.6312 1.81073 18.9738V18.9824C2.02225 19.3251 2.24859 19.6529 2.48196 19.9729C2.83396 20.4498 3.23123 20.9103 3.66051 21.3317C4.36373 22.042 5.15125 22.6664 6.01838 23.1885C6.36102 23.3915 6.72005 23.5866 7.07908 23.7669C7.62543 24.0322 8.19597 24.2586 8.78134 24.4373C9.56184 24.6801 10.3814 24.851 11.2157 24.9376C11.6372 24.9759 12.0672 25.0001 12.4957 25.0001C12.925 25.0001 13.3543 24.9759 13.7757 24.9376C14.6109 24.851 15.4304 24.6801 16.2109 24.4373C16.7962 24.2586 17.3668 24.0322 17.9209 23.7669C18.28 23.5944 18.6304 23.3993 18.9738 23.1885H18.9816C20.6987 22.1434 22.1426 20.6987 23.1893 18.9824V18.9738C23.3992 18.6312 23.5944 18.2792 23.7661 17.9202C24.0322 17.3738 24.2578 16.8049 24.4373 16.2109C24.5622 15.8206 24.6636 15.4226 24.7417 15.0245V15.0175C24.8276 14.6109 24.89 14.198 24.9368 13.7843C24.9766 13.3629 24.9993 12.9336 24.9993 12.5035C24.9993 12.2694 24.9915 12.0282 24.9766 11.7941Z" fill="black"/>
</svg>

<svg xmlns="http://www.w3.org/2000/svg" width="25" height="25" fill="none" viewBox="0 0 25 25"><path fill="currentColor" fill-rule="evenodd" d="M12.511 11.333a1.17 1.17 0 1 0 1.17 1.17c0-.217-.062-.429-.17-.6a1.16 1.16 0 0 0-1-.57m9.015-3.317-6.368 3.81q.083.326.085.678a2.734 2.734 0 0 1-2.732 2.731 2.74 2.74 0 0 1-2.59-1.865H6.236a.783.783 0 0 1-.78-.78c0-.429.35-.781.78-.781h3.637a2.73 2.73 0 0 1 2.638-2.037c.718 0 1.358.274 1.842.719l6.37-3.818a.787.787 0 0 1 1.076.274.783.783 0 0 1-.273 1.069m-17.109-.28a.78.78 0 0 1-1.06.288.79.79 0 0 1-.29-1.069.78.78 0 0 1 1.07-.282.77.77 0 0 1 .28 1.063m-2.075 5.463a.783.783 0 0 1-.78-.78c0-.438.35-.78.78-.78s.78.342.78.78c0 .428-.35.78-.78.78m4.76-10.217a.787.787 0 0 1 1.07.29c.21.373.085.85-.29 1.06a.77.77 0 0 1-1.06-.28.78.78 0 0 1 .28-1.07m5.48-1.42c.436 0 .78.351.78.78s-.344.78-.78.78a.783.783 0 0 1-.781-.78c0-.429.351-.78.78-.78m4.394 1.794a.79.79 0 0 1 1.069-.289.78.78 0 0 1 .28 1.07.77.77 0 0 1-1.06.281.78.78 0 0 1-.289-1.062m8 8.438c0-.087-.008-.18-.016-.266a9 9 0 0 0-.07-.656 8 8 0 0 0-.094-.6 3 3 0 0 0-.054-.289 13 13 0 0 0-.164-.703 14 14 0 0 0-.234-.772 11.6 11.6 0 0 0-.702-1.671 6 6 0 0 0-.235-.444c-.023-.04-.047-.086-.07-.125a12.6 12.6 0 0 0-4.238-4.386 6 6 0 0 0-.484-.282 12.33 12.33 0 0 0-6.01-1.6h-.109C5.596 0 .008 5.59 0 12.496v.008q.001.647.061 1.28c.086.835.258 1.646.5 2.427q.272.89.671 1.71.272.538.578 1.053v.008c.211.343.438.67.671.99.352.478.75.938 1.179 1.36a12 12 0 0 0 2.357 1.857c.343.203.702.398 1.061.578a12.6 12.6 0 0 0 4.137 1.17c.421.039.851.063 1.28.063s.858-.024 1.28-.062a12.6 12.6 0 0 0 4.145-1.171q.538-.261 1.053-.578h.008a12.6 12.6 0 0 0 4.207-4.207v-.008q.317-.515.577-1.054.4-.818.671-1.71.188-.586.305-1.186v-.006c.086-.407.148-.82.195-1.234q.061-.633.062-1.28c0-.235-.008-.476-.022-.71" clip-rule="evenodd"/></svg>
